X:1
T:Gnossienne N°2
T:Gnossienne N°2
T:Arranjo para Violão Solo
T:Erik Satie
T:Arr. Alejandro A. Jara
C:Erik Satie
Z:Arr. Alejandro A. Jara
%%score ( 1 2 3 )
L:1/8
Q:1/4=60
M:4/4
K:G
V:1 treble-8 nm="Classical Guitar" snm="Guit."
V:2 treble-8 
V:3 treble-8 
V:1
"^\n" (3:2:2(a b2- b2 (3gag (3aga | (3:2:2=f g2- g2 (3efe (3fef | (3:2:2d f2- f3) z z2 | z8 | %4
 (3:2:2(a b2- b2 (3gag (3aga | (3:2:2=f g2- g2 (3efe (3fef | (3:2:2_e c2- c3) z z2 | z8 | %8
 (3z (cd (3_e=fe (3dcd (3efe | (3:2:2f f2- f3) z z2 | (3z (cd (3_e=fg (3agf (3efe | %11
 (3:2:2f f2- f4- (3:2:2f2 f | e8- | e4- e2) z2 | (3z (b^a (3^gab (3^c'^d'c' (3bag | %15
 (3^e^ge- e4- (3:2:2e2 f | (3:2:2g g2- g3) z z2 | (3z (b^a (3^gab (3^c'^d'c' (3bag | %18
 (3^e^ge- e4- (3:2:2e2 f | (3:2:2g g2- g4- (3:2:2g2 g | (3:2:2e e2- e3) z z2 | z8 | %22
 (3z (cd (3_e=fe (3dcd (3efe | (3:2:2f f2- f3) z z2 | (3z (cd (3_e=fg (3agf (3efe | %25
 (3:2:2f f2- f4- (3:2:2f2 f | e8 | b6) z2 | (3:2:2(a b2- b2 (3gag (3aga | %29
 (3:2:2=f g2- g2 (3efe (3fef | (3:2:2d f2- f3) z z2 | z8 |] %32
V:2
 D8 | D8 | B,8 | B,8 | D8 | D8 | A,8 | A,8 | A,8 | B,8 | A,8 | B,8 | E,8 | E,8 | E,8 | ^C8 | C8 | %17
 E,8 | ^C8 | C8 | A,8 | A,8 | A,8 | B,8 | A,8 | B,8 | E,8 | E,8 | D8 | D8 | B,8 | B,8 |] %32
V:3
 x2 [d^e]2 [c=e]4 | x2 [d=f]2 [ce]4 | x2 [Bd]2 [Bd]4 | x2 [Gce]2 [Bdf]4 | x2 [d=f]2 [ce]4 | %5
 x2 [d=f]2 [ce]4 | x2 [_EA]2 [EA]4 | x2 [DB]2 [_EAc]4 | x2 [Ac]4 [Ac]2 | x2 [Bd]4 [Bd]2 | %10
 x2 [Ac]4 [Ac]2 | x2 [Bd]4 [Bd]2 | x2 [^GB]4 [GB]2 | x2 [FA]2 [^GB]4 | x2 ^G4 G2 | %15
 x2 [^G^c]4 [Gc]2 | x2 [ce]4 [ce]2 | x2 ^G4 G2 | x2 [^G^c]4 [Gc]2 | x2 [ce]4 [ce]2 | %20
 x2 [Ac]4 [Ac]2 | x2 [G_Bd]2 [Ace]4 | x2 [Ac]4 [Ac]2 | x2 [Bd]4 [Bd]2 | x2 [Ac]4 [Ac]2 | %25
 x2 [Bd]4 [Bd]2 | x2 [^GB]4 [GB]2 | x2 [FA]2 [^GB]4 | x2 [d=f]2 [ce]4 | x2 [d=f]2 [ce]4 | %30
 x2 [Bd]2 [Bd]4 | x2 [Gce]2 [Bdf]4 |] %32

